docs/img/questions/stars-2.svg

<svg width="753" height="753" fill="none" xmlns="http://www.w3.org/2000/svg"><path d="M517.439 379.499c11.974 7.765 10.119 25.826-3.184 30.995l-85.542 33.238a22.5 22.5 0 00-10.441 8.296l-43.387 63.626c-8.304 12.178-27.022 9.263-31.23-4.863l-20.847-69.984a22.501 22.501 0 00-8.82-12.119l-78.283-53.803c-12.073-8.297-9.217-26.869 4.79-31.156l86.799-26.566a22.494 22.494 0 0012.93-10.316l38.026-66.265c7.545-13.149 27.1-11.138 31.812 3.27l24.926 76.225a22.498 22.498 0 009.144 11.886l73.307 47.536z" stroke="#fff" stroke-opacity=".3" stroke-width="5"/><path d="M468.943 382.026c5.132 3.328 4.337 11.069-1.364 13.284l-59.854 23.256a12.498 12.498 0 00-5.8 4.609l-31.13 45.651c-3.559 5.219-11.581 3.97-13.385-2.084l-15.085-50.643a12.5 12.5 0 00-4.9-6.733l-54.955-37.769c-5.174-3.556-3.95-11.516 2.053-13.353l61.316-18.766a12.499 12.499 0 007.183-5.732l27.616-48.124c3.233-5.635 11.614-4.773 13.633 1.402l17.959 54.917a12.495 12.495 0 005.08 6.603l51.633 33.482z" stroke="#fff" stroke-opacity=".6" stroke-width="5"/><path d="M561.892 385.133c11.975 7.765 10.12 25.827-3.183 30.995l-117.758 45.755a22.499 22.499 0 00-10.44 8.297l-61.183 89.722c-8.304 12.178-27.022 9.263-31.23-4.863l-29.639-99.5a22.501 22.501 0 00-8.82-12.119l-108.105-74.298c-12.072-8.297-9.216-26.869 4.791-31.156l120.586-36.906a22.505 22.505 0 0012.93-10.317l54.249-94.538c7.545-13.148 27.1-11.137 31.812 3.271l35.289 107.917a22.505 22.505 0 009.144 11.885l101.557 65.855z" stroke="#fff" stroke-opacity=".2" stroke-width="5"/></svg>

<svg width="753" height="753" viewBox="0 0 753 753" fill="none" xmlns="http://www.w3.org/2000/svg">
<path d="M517.439 379.499C529.413 387.264 527.558 405.325 514.255 410.494L428.713 443.732C424.474 445.379 420.834 448.271 418.272 452.028L374.885 515.654C366.581 527.832 347.863 524.917 343.655 510.791L322.808 440.807C321.339 435.878 318.227 431.601 313.988 428.688L235.705 374.885C223.632 366.588 226.488 348.016 240.495 343.729L327.294 317.163C332.758 315.491 337.381 311.803 340.224 306.847L378.25 240.582C385.795 227.433 405.35 229.444 410.062 243.852L434.988 320.077C436.587 324.968 439.814 329.163 444.132 331.963L517.439 379.499Z" stroke="white" stroke-opacity="0.3" stroke-width="5"/>
<path d="M468.943 382.026C474.075 385.354 473.28 393.095 467.579 395.31L407.725 418.566C405.37 419.481 403.348 421.088 401.925 423.175L370.795 468.826C367.236 474.045 359.214 472.796 357.41 466.742L342.325 416.099C341.509 413.361 339.78 410.984 337.425 409.366L282.47 371.597C277.296 368.041 278.52 360.081 284.523 358.244L345.839 339.478C348.874 338.549 351.442 336.5 353.022 333.746L380.638 285.622C383.871 279.987 392.252 280.849 394.271 287.024L412.23 341.941C413.118 344.658 414.911 346.989 417.31 348.544L468.943 382.026Z" stroke="white" stroke-opacity="0.6" stroke-width="5"/>
<path d="M561.892 385.133C573.867 392.898 572.012 410.96 558.709 416.128L440.951 461.883C436.713 463.53 433.072 466.423 430.511 470.18L369.328 559.902C361.024 572.08 342.306 569.165 338.098 555.039L308.459 455.539C306.99 450.61 303.878 446.333 299.639 443.42L191.534 369.122C179.462 360.825 182.318 342.253 196.325 337.966L316.911 301.06C322.374 299.387 326.997 295.699 329.841 290.743L384.09 196.205C391.635 183.057 411.19 185.068 415.902 199.476L451.191 307.393C452.791 312.284 456.018 316.478 460.335 319.278L561.892 385.133Z" stroke="white" stroke-opacity="0.2" stroke-width="5"/>
</svg>
